public/assets/images/logo-nhl.svg

<svg viewBox="0 0 70 80" xmlns="http://www.w3.org/2000/svg">
	<g fill="#cfd2d3">
		<path d="m64.41 29a22.89 22.89 0 0 1 2-9.22l2.21-5.06-5.2-1.55c-2.27-.67-3.92-2.39-4.91-5.12l-2.33-6.3-5.11 4.25a8.87 8.87 0 0 1 -5.64 2.32 10.61 10.61 0 0 1 -7.14-3.06l-3.29-3.26-3.29 3.27a10.58 10.58 0 0 1 -7.13 3.06 8.87 8.87 0 0 1 -5.65-2.33l-5.11-4.25-2.29 6.32c-1 2.73-2.64 4.45-4.9 5.12l-5.21 1.55 2.22 5.06a23.06 23.06 0 0 1 1.95 9.2c0 8.64-4.2 10.35-4.2 19.42 0 12.14 9 20.86 18.9 23.44 4.91 1.24 7.19 1.37 10.85 2.4.48.51 3.86 4.19 3.86 4.19s3.38-3.68 3.86-4.19c3.66-1 6-1.16 10.86-2.4 9.92-2.58 18.89-11.3 18.89-23.44 0-9.07-4.2-10.78-4.2-19.42m-15.29 40.54c-5.25 1.33-8.88 1.68-11.55 2.65-.35.32-2.57 2.75-2.57 2.75s-2.22-2.43-2.56-2.75c-2.67-1-6.3-1.32-11.56-2.65-11.06-2.82-17.13-12.18-17.13-21.1 0-8.1 4.25-10.59 4.25-19.44a29 29 0 0 0 -3.32-12.72s8-.7 10.2-10.53c0 0 4.82 5 9.7 5 6.28-.01 10.42-5.39 10.42-5.39s4.14 5.38 10.43 5.38c4.88 0 9.69-5 9.69-5 2.17 9.83 10.2 10.53 10.2 10.53a29 29 0 0 0 -3.27 12.73c0 8.85 4.2 11.34 4.2 19.44 0 8.92-6.06 18.28-17.13 21.1"/>
		<path d="m59.69 29a28.07 28.07 0 0 1 2.37-11.17s-5.46-1.11-8-8.08a13.87 13.87 0 0 1 -8.63 3.41 15.53 15.53 0 0 1 -10.43-4.43 15.52 15.52 0 0 1 -10.42 4.43 13.83 13.83 0 0 1 -8.58-3.41c-2.54 7-8 8.08-8 8.08a28.07 28.07 0 0 1 2.31 11.17c0 9.36-4.2 12.07-4.2 19.44 0 10.31 8 16.87 15.36 18.76 5.85 1.49 9.67 1.66 12.24 2.91 0 0 .94.86 1.29 1.26.35-.4 1.29-1.26 1.29-1.26 2.57-1.25 6.4-1.42 12.25-2.91 7.38-1.89 15.35-8.45 15.35-18.76 0-7.37-4.2-10.08-4.2-19.44m-46.69 0a31.41 31.41 0 0 0 -1.6-9.7 15 15 0 0 0 5.6-5.54 15.42 15.42 0 0 0 7.57 2.1 17.74 17.74 0 0 0 10.43-3.6 17.78 17.78 0 0 0 10.43 3.6 13.8 13.8 0 0 0 2.16-.17l-38.31 29c1.1-4.37 3.72-7.98 3.72-15.69m5.22 34.07c-4.91-2.54-9.22-7.41-9.42-14.07l45-34a14.65 14.65 0 0 0 4.84 4.36 31.41 31.41 0 0 0 -1.64 9.64 29.83 29.83 0 0 0 .32 4.46zm29.67 1.5c-4.64 1.19-10.31 1.8-12 2.79a7.16 7.16 0 0 0 -.86.79 7.62 7.62 0 0 0 -.85-.79c-1.72-1-7.39-1.6-12-2.79l-.53-.14 36.47-27.6c1.24 4.38 3.14 7.25 3.14 11.61 0 8.74-6.91 14.49-13.33 16.13"/>
		<path d="m25.5 49-4.2-6.49-4.66 3.49a1.69 1.69 0 0 1 1.63 1.77v12.23l3.29-2.49v-8.61l3.75 5.79 3.48-2.63v-15.22l-3.29 2.49z"/>
		<path d="m38.85 34.86-3.71 2.8v-5.66l-5 3.8a1.68 1.68 0 0 1 1.64 1.77v12.25l3.38-2.56v-5.57l3.71-2.81v5.57l3.2-2.45v-15.2l-3.22 2.44z"/>
		<path d="m48.26 33.44v-11.33l-5 3.8a1.68 1.68 0 0 1 1.64 1.77v12.2l9.33-7.06a19.57 19.57 0 0 1 0-3.88z"/>
	</g>
	<g fill="#231f20">
	<path d="m53.77 14.94-44.97 34.06c.22 6.69 4.51 11.56 9.41 14.1l39.12-29.64a29.73 29.73 0 0 1 -.33-4.46 31.41 31.41 0 0 1 1.6-9.7 14.65 14.65 0 0 1 -4.84-4.36m-25 37.12-3.47 2.63-3.73-5.79v8.63l-3.29 2.47v-12.19a1.67 1.67 0 0 0 -1.63-1.76l4.66-3.54 4.2 6.49v-9.67l3.29-2.49zm13.31-10.06-3.22 2.44v-5.56l-3.71 2.81v5.57l-3.38 2.56v-12.21a1.68 1.68 0 0 0 -1.64-1.77l5-3.8v5.63l3.71-2.81v-5.62l3.22-2.44zm12.14-9.19-9.33 7.06v-12.19a1.68 1.68 0 0 0 -1.64-1.77l5-3.8v11.33l6-4.5a19.57 19.57 0 0 0 0 3.88"/>
	<path d="m45.43 15.86a17.78 17.78 0 0 1 -10.43-3.6 17.74 17.74 0 0 1 -10.42 3.6 15.42 15.42 0 0 1 -7.58-2.1 15.08 15.08 0 0 1 -5.62 5.55 31.28 31.28 0 0 1 1.62 9.69c0 7.71-2.61 11.32-3.71 15.68l38.31-29a13.8 13.8 0 0 1 -2.16.17"/>
	<path d="m21.6 64.43.53.14c4.63 1.19 10.3 1.8 12 2.79a7.62 7.62 0 0 1 .85.79 7.16 7.16 0 0 1 .86-.79c1.71-1 7.38-1.6 12-2.79 6.42-1.64 13.33-7.39 13.33-16.13 0-4.36-1.9-7.23-3.14-11.61z"/>
	<path d="m55.12 5.75s-4.81 5-9.69 5c-6.29-.01-10.43-5.39-10.43-5.39s-4.14 5.38-10.42 5.38c-4.88 0-9.7-5-9.7-5-2.17 9.83-10.2 10.54-10.2 10.54a29 29 0 0 1 3.32 12.72c0 8.85-4.2 11.34-4.2 19.44 0 8.92 6.07 18.28 17.13 21.1 5.26 1.33 8.88 1.68 11.56 2.65.34.32 2.56 2.75 2.56 2.75s2.22-2.43 2.57-2.75c2.67-1 6.3-1.32 11.55-2.65 11.07-2.82 17.13-12.18 17.13-21.1 0-8.1-4.2-10.59-4.2-19.44a29 29 0 0 1 3.27-12.71s-8-.71-10.2-10.54m4.52 23.25c0 9.36 4.2 12.07 4.2 19.44 0 10.31-8 16.87-15.35 18.76-5.85 1.49-9.68 1.66-12.25 2.91 0 0-.94.86-1.29 1.26-.35-.4-1.29-1.26-1.29-1.26-2.57-1.25-6.39-1.42-12.24-2.91-7.39-1.89-15.36-8.45-15.36-18.76 0-7.37 4.2-10.08 4.2-19.44a28.07 28.07 0 0 0 -2.37-11.17s5.47-1.11 8-8.08a13.83 13.83 0 0 0 8.63 3.41 15.52 15.52 0 0 0 10.43-4.43 15.53 15.53 0 0 0 10.43 4.43 13.87 13.87 0 0 0 8.63-3.41c2.54 7 8 8.08 8 8.08a28.07 28.07 0 0 0 -2.37 11.17"/>
	<path d="m70 14.07-6.33-1.88c-1.93-.57-3.35-2.08-4.22-4.47l-2.8-7.72-6.24 5.21a7.82 7.82 0 0 1 -5 2.08 9.66 9.66 0 0 1 -6.41-2.76l-4-4-4 4a9.63 9.63 0 0 1 -6.4 2.76 7.85 7.85 0 0 1 -5-2.08l-6.25-5.21-2.8 7.72c-.87 2.39-2.28 3.9-4.22 4.47l-6.33 1.88 2.69 6.15a21.88 21.88 0 0 1 1.87 8.78c0 8.3-4.21 10.2-4.21 19.42 0 13.29 10.2 22 19.68 24.45 4.79 1.17 6.24 1.25 10.56 2.32l4.41 4.81 4.41-4.79c4.33-1.07 5.77-1.15 10.56-2.32 9.48-2.46 19.68-11.16 19.68-24.45 0-9.22-4.21-11.12-4.21-19.42a21.88 21.88 0 0 1 1.87-8.8zm-5.59 14.93c0 8.64 4.2 10.35 4.2 19.42 0 12.14-9 20.86-18.89 23.44-4.91 1.24-7.2 1.37-10.86 2.4-.48.51-3.86 4.19-3.86 4.19s-3.38-3.68-3.86-4.19c-3.66-1-5.94-1.16-10.85-2.4-9.93-2.58-18.9-11.3-18.9-23.44 0-9.07 4.2-10.78 4.2-19.42a23.06 23.06 0 0 0 -1.95-9.2l-2.21-5.06 5.2-1.55c2.26-.67 3.91-2.39 4.9-5.12l2.29-6.32 5.11 4.25a8.93 8.93 0 0 0 5.65 2.32 10.58 10.58 0 0 0 7.13-3.06l3.29-3.26 3.29 3.28a10.59 10.59 0 0 0 7.14 3.06 8.92 8.92 0 0 0 5.64-2.34l5.11-4.26 2.29 6.32c1 2.73 2.64 4.45 4.91 5.12l5.2 1.55-2.21 5.07a22.89 22.89 0 0 0 -2 9.22"/>
	</g>
	<g fill="#fff">
	<path d="m66.67 65.35a2.73 2.73 0 1 0 2.71 2.73 2.72 2.72 0 0 0 -2.71-2.73m0 4.87a2.15 2.15 0 1 1 2.13-2.14 2.13 2.13 0 0 1 -2.13 2.14"/>
	<path d="m68 67.44a.92.92 0 0 0 -.91-.92h-1.33v3.11h.58v-1.26h.42l.58 1.26h.66l-.61-1.32a.91.91 0 0 0 .61-.87m-.91.34h-.73v-.68h.73a.34.34 0 0 1 0 .68"/>
	</g>
</svg>

<svg xmlns="http://www.w3.org/2000/svg" viewBox="0 0 70 80"><defs><style>.cls-1{fill:#cfd2d3;}.cls-2{fill:#231f20;}.cls-3{fill:#fff;}</style></defs><title>Asset 1</title><g id="Layer_2" data-name="Layer 2"><g id="Layer_2-2" data-name="Layer 2"><path class="cls-1" d="M64.41,29a22.89,22.89,0,0,1,2-9.22l2.21-5.06-5.2-1.55c-2.27-.67-3.92-2.39-4.91-5.12L56.18,1.75,51.07,6a8.87,8.87,0,0,1-5.64,2.32,10.61,10.61,0,0,1-7.14-3.06L35,2,31.71,5.27a10.58,10.58,0,0,1-7.13,3.06A8.87,8.87,0,0,1,18.93,6L13.82,1.75,11.53,8.07c-1,2.73-2.64,4.45-4.9,5.12L1.42,14.74,3.64,19.8A23.06,23.06,0,0,1,5.59,29c0,8.64-4.2,10.35-4.2,19.42,0,12.14,9,20.86,18.9,23.44,4.91,1.24,7.19,1.37,10.85,2.4.48.51,3.86,4.19,3.86,4.19s3.38-3.68,3.86-4.19c3.66-1,6-1.16,10.86-2.4,9.92-2.58,18.89-11.3,18.89-23.44,0-9.07-4.2-10.78-4.2-19.42M49.12,69.54c-5.25,1.33-8.88,1.68-11.55,2.65-.35.32-2.57,2.75-2.57,2.75s-2.22-2.43-2.56-2.75c-2.67-1-6.3-1.32-11.56-2.65C9.82,66.72,3.75,57.36,3.75,48.44,3.75,40.34,8,37.85,8,29A29,29,0,0,0,4.68,16.28s8-.7,10.2-10.53c0,0,4.82,5,9.7,5C30.86,10.74,35,5.36,35,5.36s4.14,5.38,10.43,5.38c4.88,0,9.69-5,9.69-5,2.17,9.83,10.2,10.53,10.2,10.53A29,29,0,0,0,62.05,29c0,8.85,4.2,11.34,4.2,19.44,0,8.92-6.06,18.28-17.13,21.1"/><path class="cls-1" d="M59.69,29a28.07,28.07,0,0,1,2.37-11.17s-5.46-1.11-8-8.08a13.87,13.87,0,0,1-8.63,3.41A15.53,15.53,0,0,1,35,8.73a15.52,15.52,0,0,1-10.42,4.43A13.83,13.83,0,0,1,16,9.75c-2.54,7-8,8.08-8,8.08A28.07,28.07,0,0,1,10.31,29c0,9.36-4.2,12.07-4.2,19.44,0,10.31,8,16.87,15.36,18.76,5.85,1.49,9.67,1.66,12.24,2.91,0,0,.94.86,1.29,1.26.35-.4,1.29-1.26,1.29-1.26,2.57-1.25,6.4-1.42,12.25-2.91,7.38-1.89,15.35-8.45,15.35-18.76,0-7.37-4.2-10.08-4.2-19.44M13,29a31.41,31.41,0,0,0-1.6-9.7A15,15,0,0,0,17,13.76a15.42,15.42,0,0,0,7.57,2.1A17.74,17.74,0,0,0,35,12.26a17.78,17.78,0,0,0,10.43,3.6,13.8,13.8,0,0,0,2.16-.17l-38.31,29C10.38,40.32,13,36.71,13,29m5.22,34.07C13.31,60.53,9,55.66,8.8,49l45-34a14.65,14.65,0,0,0,4.84,4.36A31.41,31.41,0,0,0,57,29a29.83,29.83,0,0,0,.32,4.46Zm29.67,1.5c-4.64,1.19-10.31,1.8-12,2.79a7.16,7.16,0,0,0-.86.79,7.62,7.62,0,0,0-.85-.79c-1.72-1-7.39-1.6-12-2.79l-.53-.14,36.47-27.6c1.24,4.38,3.14,7.25,3.14,11.61,0,8.74-6.91,14.49-13.33,16.13"/><path class="cls-1" d="M25.5,49l-4.2-6.49L16.64,46a1.69,1.69,0,0,1,1.63,1.77V60l3.29-2.49V48.9l3.75,5.79,3.48-2.63V36.84L25.5,39.33Z"/><path class="cls-1" d="M38.85,34.86l-3.71,2.8V32l-5,3.8a1.68,1.68,0,0,1,1.64,1.77V49.82l3.38-2.56V41.69l3.71-2.81v5.57L42.07,42V26.8l-3.22,2.44Z"/><path class="cls-1" d="M48.26,33.44V22.11l-5,3.8a1.68,1.68,0,0,1,1.64,1.77v12.2l9.33-7.06a19.57,19.57,0,0,1,0-3.88Z"/><path class="cls-2" d="M53.77,14.94,8.8,49c.22,6.69,4.51,11.56,9.41,14.1L57.33,33.46A29.73,29.73,0,0,1,57,29a31.41,31.41,0,0,1,1.6-9.7,14.65,14.65,0,0,1-4.84-4.36m-25,37.12-3.47,2.63L21.56,48.9v8.63L18.27,60V47.81a1.67,1.67,0,0,0-1.63-1.76l4.66-3.54L25.5,49V39.33l3.29-2.49ZM42.07,42l-3.22,2.44V38.88l-3.71,2.81v5.57l-3.38,2.56V37.61a1.68,1.68,0,0,0-1.64-1.77l5-3.8v5.63l3.71-2.81V29.24l3.22-2.44Zm12.14-9.19-9.33,7.06V27.68a1.68,1.68,0,0,0-1.64-1.77l5-3.8V33.44l6-4.5a19.57,19.57,0,0,0,0,3.88"/><path class="cls-2" d="M45.43,15.86A17.78,17.78,0,0,1,35,12.26a17.74,17.74,0,0,1-10.42,3.6A15.42,15.42,0,0,1,17,13.76a15.08,15.08,0,0,1-5.62,5.55A31.28,31.28,0,0,1,13,29c0,7.71-2.61,11.32-3.71,15.68l38.31-29a13.8,13.8,0,0,1-2.16.17"/><path class="cls-2" d="M21.6,64.43l.53.14c4.63,1.19,10.3,1.8,12,2.79a7.62,7.62,0,0,1,.85.79,7.16,7.16,0,0,1,.86-.79c1.71-1,7.38-1.6,12-2.79,6.42-1.64,13.33-7.39,13.33-16.13,0-4.36-1.9-7.23-3.14-11.61Z"/><path class="cls-2" d="M55.12,5.75s-4.81,5-9.69,5C39.14,10.74,35,5.36,35,5.36s-4.14,5.38-10.42,5.38c-4.88,0-9.7-5-9.7-5-2.17,9.83-10.2,10.54-10.2,10.54A29,29,0,0,1,8,29c0,8.85-4.2,11.34-4.2,19.44,0,8.92,6.07,18.28,17.13,21.1,5.26,1.33,8.88,1.68,11.56,2.65.34.32,2.56,2.75,2.56,2.75s2.22-2.43,2.57-2.75c2.67-1,6.3-1.32,11.55-2.65,11.07-2.82,17.13-12.18,17.13-21.1,0-8.1-4.2-10.59-4.2-19.44a29,29,0,0,1,3.27-12.71s-8-.71-10.2-10.54M59.69,29c0,9.36,4.2,12.07,4.2,19.44,0,10.31-8,16.87-15.35,18.76-5.85,1.49-9.68,1.66-12.25,2.91,0,0-.94.86-1.29,1.26-.35-.4-1.29-1.26-1.29-1.26-2.57-1.25-6.39-1.42-12.24-2.91C14.08,65.31,6.11,58.75,6.11,48.44c0-7.37,4.2-10.08,4.2-19.44A28.07,28.07,0,0,0,7.94,17.83s5.47-1.11,8-8.08a13.83,13.83,0,0,0,8.63,3.41A15.52,15.52,0,0,0,35,8.73a15.53,15.53,0,0,0,10.43,4.43,13.87,13.87,0,0,0,8.63-3.41c2.54,7,8,8.08,8,8.08A28.07,28.07,0,0,0,59.69,29"/><path class="cls-2" d="M70,14.07l-6.33-1.88c-1.93-.57-3.35-2.08-4.22-4.47L56.65,0,50.41,5.21a7.82,7.82,0,0,1-5,2.08A9.66,9.66,0,0,1,39,4.53l-4-4-4,4a9.63,9.63,0,0,1-6.4,2.76,7.85,7.85,0,0,1-5-2.08L13.35,0l-2.8,7.72c-.87,2.39-2.28,3.9-4.22,4.47L0,14.07l2.69,6.15A21.88,21.88,0,0,1,4.56,29c0,8.3-4.21,10.2-4.21,19.42,0,13.29,10.2,22,19.68,24.45,4.79,1.17,6.24,1.25,10.56,2.32L35,80l4.41-4.79c4.33-1.07,5.77-1.15,10.56-2.32,9.48-2.46,19.68-11.16,19.68-24.45,0-9.22-4.21-11.12-4.21-19.42a21.88,21.88,0,0,1,1.87-8.8ZM64.41,29c0,8.64,4.2,10.35,4.2,19.42,0,12.14-9,20.86-18.89,23.44-4.91,1.24-7.2,1.37-10.86,2.4-.48.51-3.86,4.19-3.86,4.19s-3.38-3.68-3.86-4.19c-3.66-1-5.94-1.16-10.85-2.4-9.93-2.58-18.9-11.3-18.9-23.44,0-9.07,4.2-10.78,4.2-19.42A23.06,23.06,0,0,0,3.64,19.8L1.43,14.74l5.2-1.55c2.26-.67,3.91-2.39,4.9-5.12l2.29-6.32L18.93,6a8.93,8.93,0,0,0,5.65,2.32,10.58,10.58,0,0,0,7.13-3.06L35,2l3.29,3.28a10.59,10.59,0,0,0,7.14,3.06A8.92,8.92,0,0,0,51.07,6l5.11-4.26,2.29,6.32c1,2.73,2.64,4.45,4.91,5.12l5.2,1.55L66.37,19.8a22.89,22.89,0,0,0-2,9.22"/><path class="cls-3" d="M66.67,65.35a2.73,2.73,0,1,0,2.71,2.73,2.72,2.72,0,0,0-2.71-2.73m0,4.87a2.15,2.15,0,1,1,2.13-2.14,2.13,2.13,0,0,1-2.13,2.14"/><path class="cls-3" d="M68,67.44a.92.92,0,0,0-.91-.92H65.76v3.11h.58V68.37h.42l.58,1.26H68l-.61-1.32a.91.91,0,0,0,.61-.87m-.91.34h-.73V67.1h.73a.34.34,0,0,1,0,.68"/></g></g></svg>
